X: 22
T: Here We Come A-Caroling
P: piffero primo c0048
O: English wassail song
%R: waltz+march
F: http://ancients.sudburymuster.org/mus/col/pdf/carolsF.pdf
Z: 2020 John Chambers <jc:trillian.mit.edu>
M: 6/8
L: 1/8
K: D
% - - - - - - - - - -
D |\
D2E F2E | D2E F2E | D2A A2A | A3 A2A |\
B2B A2F | A3  G2F | E2D E2F |[M:3/8] G3 ||[M:4/4] F2G2 |
A4 d2B2 | A4 F2G2 | A2A2 d2B2 | A4 F2G2 |\
A4 B2F2 | G2E2 D2C2 | D3E F3D | G4 F2G2 |\
A4 B2F2 | G2E2 D2C2 | D6 z2 |]
%% - - - - - - - - - -


